static/assets/images/products/kubevault/features/secretengines.svg

<svg width="32" height="32" viewBox="0 0 32 32" fill="none" xmlns="http://www.w3.org/2000/svg">
<path d="M16.5287 31.9844H16.0833H15.7785C13.0051 31.0502 10.469 29.5221 8.34702 27.5067C6.63313 25.7727 5.33465 23.6727 4.54922 21.3646C3.29991 17.276 2.79957 12.9952 3.07229 8.7287V8.7287C3.07229 8.42394 3.07229 8.11917 3.07229 7.72064C3.06566 6.84121 3.40247 5.99391 4.01107 5.35905C4.61966 4.72419 5.45198 4.35188 6.3309 4.32137C9.64665 4.25045 12.806 2.89766 15.1456 0.547014V0.547014C15.5158 0.195792 16.0067 0 16.517 0C17.0273 0 17.5182 0.195792 17.8884 0.547014V0.547014C20.2194 2.89621 23.371 4.2493 26.6796 4.32137C27.5237 4.38546 28.3136 4.7622 28.8946 5.37789C29.4756 5.99358 29.8059 6.8039 29.821 7.65031C29.821 7.95507 29.821 8.28328 29.821 8.65837C30.1267 12.9347 29.6581 17.2312 28.4379 21.3412C27.6313 23.6116 26.3347 25.6766 24.6401 27.3895C22.535 29.3915 20.0247 30.9185 17.2789 31.8672H16.9741L16.5287 31.9844ZM16.5287 8.21295C16.1383 8.21414 15.7505 8.27745 15.38 8.40049C14.6198 8.63448 13.9463 9.08933 13.4454 9.70717C12.9444 10.325 12.6386 11.0779 12.5668 11.8701C12.5431 12.2996 12.5431 12.73 12.5668 13.1595V13.769C11.7932 13.98 11.6056 14.2144 11.6291 15.0115V22.0444C11.6878 22.2567 11.8176 22.4425 11.9968 22.5705C12.1761 22.6985 12.3938 22.7611 12.6137 22.7477H20.3499C20.5953 22.7742 20.8411 22.7029 21.0342 22.5493C21.2273 22.3957 21.352 22.1722 21.3815 21.9272V14.777C21.4027 14.5549 21.3398 14.3329 21.2052 14.1549C21.0707 13.977 20.8742 13.856 20.6547 13.8159H20.4906V12.339C20.5048 11.3316 20.1458 10.3545 19.4826 9.5961C19.113 9.16733 18.6563 8.82221 18.1429 8.58372C17.6296 8.34523 17.0713 8.21883 16.5053 8.21295H16.5287ZM17.2554 20.1455H15.802C15.7909 19.9895 15.7909 19.8328 15.802 19.6767C15.802 19.3016 15.9426 18.9265 16.0364 18.5749C16.0617 18.4998 16.0591 18.4181 16.0289 18.3449C15.9988 18.2716 15.9431 18.2118 15.8723 18.1763C15.7671 18.0998 15.6781 18.0031 15.6105 17.892C15.5429 17.7808 15.498 17.6573 15.4784 17.5287C15.4588 17.4001 15.4648 17.2689 15.4962 17.1426C15.5276 17.0164 15.5837 16.8976 15.6613 16.7932C15.7667 16.651 15.9094 16.5408 16.0734 16.4745C16.2375 16.4083 16.4167 16.3886 16.5913 16.4177C16.7658 16.4468 16.929 16.5235 17.0627 16.6394C17.1964 16.7553 17.2956 16.9059 17.3492 17.0745C17.4338 17.2571 17.459 17.4617 17.4211 17.6594C17.3833 17.8571 17.2843 18.0379 17.1382 18.1763C17.1011 18.1912 17.0676 18.2139 17.0399 18.2427C17.0122 18.2716 16.991 18.306 16.9777 18.3438C16.9644 18.3815 16.9593 18.4216 16.9627 18.4614C16.9661 18.5013 16.978 18.54 16.9976 18.5749C16.9976 18.8562 16.9976 19.1609 17.1617 19.4657L17.3023 20.169L17.2554 20.1455ZM19.1543 13.7924H13.8562C13.8562 13.5111 13.8562 13.2298 13.8562 12.9719C13.7884 12.3351 13.8769 11.6914 14.1141 11.0965C14.3182 10.643 14.6469 10.2569 15.0619 9.98299C15.4769 9.70908 15.9612 9.55865 16.4584 9.54921H16.9038C17.4716 9.65221 17.9908 9.93623 18.3838 10.3588C18.7768 10.7814 19.0224 11.3198 19.084 11.8935C19.084 12.3155 19.084 12.714 19.084 13.136V13.7455L19.1543 13.7924Z" fill="#326CE5"/>
</svg>

<svg xmlns="http://www.w3.org/2000/svg" width="32" height="32" fill="none" xmlns:v="https://vecta.io/nano"><path d="M16.529 31.984h-.445-.305c-2.773-.934-5.309-2.462-7.431-4.478a16.13 16.13 0 0 1-3.798-6.142C3.3 17.276 2.8 12.995 3.072 8.729h0V7.721c-.007-.879.33-1.727.939-2.362s1.441-1.007 2.32-1.038c3.316-.071 6.475-1.424 8.815-3.774h0c.37-.351.861-.547 1.371-.547s1.001.196 1.371.547h0c2.331 2.349 5.483 3.702 8.791 3.774a3.4 3.4 0 0 1 3.141 3.329v1.008c.306 4.276-.163 8.573-1.383 12.683a16.41 16.41 0 0 1-3.798 6.048c-2.105 2.002-4.615 3.529-7.361 4.478h-.305l-.445.117zm0-23.771a3.68 3.68 0 0 0-1.149.188 4.01 4.01 0 0 0-2.813 3.47 11.7 11.7 0 0 0 0 1.289v.61c-.774.211-.961.445-.938 1.242v7.033a.96.96 0 0 0 .985.703h7.736c.245.027.491-.045.684-.198a.94.94 0 0 0 .347-.622v-7.15a.89.89 0 0 0-.727-.961h-.164v-1.477a4.08 4.08 0 0 0-1.008-2.743c-.37-.429-.826-.774-1.34-1.012s-1.072-.365-1.638-.371h.023zm.727 11.933h-1.453c-.011-.156-.011-.313 0-.469 0-.375.141-.75.234-1.102.025-.075.023-.157-.008-.23s-.086-.133-.157-.169c-.105-.077-.194-.173-.262-.284s-.113-.235-.132-.363-.014-.26.018-.386.088-.245.165-.349a.96.96 0 0 1 .93-.375.96.96 0 0 1 .758.657.96.96 0 0 1-.211 1.102c-.037.015-.071.038-.098.066a.28.28 0 0 0-.062.101c-.013.038-.018.078-.015.118a.28.28 0 0 0 .035.113c0 .281 0 .586.164.891l.141.703-.047-.024zm1.899-6.353h-5.298v-.821a3.94 3.94 0 0 1 .258-1.875c.204-.453.533-.84.948-1.114s.899-.424 1.397-.434h.445c.568.103 1.087.387 1.48.81s.639.961.7 1.535v1.242.61l.07.047z" fill="#326ce5"/></svg>
